!!!OTL-incipit: Es geht nix ueber die Gemuetlichkeit, eicha, eicha
!!!ARE: Europa, Mitteleuropa, Deutschland, Ober - Franken, Toepen
!!!SCT: V0002B
!!!TXL: @@BAR
!!!YEM: Copyright 1995, estate of Helmut Schaffrath.
**kern	**text
*ICvox	*
*M2/4	*
*k[b-]	*
*F:	*
{8c	Es
=1	=1
8f	geht
8f	nix
16f	Ӯ-
16f	-ber
16g	die
16f	Ge-
=2	=2
8e	-mӮt-
8d	-lich-
8d	-keit,
8b-	ei-
=3	=3
4e	-cha,
8r	.
8a	ei-
=4	=4
4f	-cha.
8r}	.
{16c	Ha-
16c	-ben
=5	=5
8f	wir
8f	kein
16f	Geld,
16f	so
16g	ha-
16f	-bens
=6	=6
8e	an-
8d	-dre
8d	Leut,
8b-	ei-
=7	=7
4e	-cha,
8r	.
8a	ei-
=8	=8
4f	-cha.
8r}	.
==	==
!!!AGN: Geselligkeits - Lied, Gemuetlichkeit
!!!ONB: ESAC (Essen Associative Code) Database: VARIANT
!!!AMT: simple duple
!!!AIN: vox
!!!EED: Helmut Schaffrath
!!!EEV: 1.0
!!!GTL: Gemuetlichkeit
!!!source: Heigl, U.; Liertz, M. J.. et al.: Registeer un Beispielsammlung zu den Forschungsexkursionen des Instituts fӮr Volkskunde nach Oberfranken. Maschinenschriftliches Manuskript, MӮnchen 1982.
!!!page: 82
!!!ENC: Anna Maria Matuszewska
!!!EEV: 2025/04/01
*-	*-
